X: 10162
M: C
L: 1/8
K: A
f |\
e<ca>e fBBf | e<ca>e f2fg |\
a/g/f/e/ ae fBBg | a>fec A2A :|
|: F |\
e>a c>a BFFg | a>f ec A2A :|


